resources/icons/20px/app-header.svg

<?xml version="1.0" encoding="UTF-8"?>
<svg width="20px" height="20px" viewBox="0 0 20 20" version="1.1" xmlns="http://www.w3.org/2000/svg" xmlns:xlink="http://www.w3.org/1999/xlink">
    <title>app-header</title>
    <g id="app-header" stroke="none" stroke-width="1" fill="none" fill-rule="evenodd">
        <path d="M19,0 C19.5522847,0 20,0.44771525 20,1 L20,19 C20,19.5522847 19.5522847,20 19,20 L1,20 C0.44771525,20 0,19.5522847 0,19 L0,1 C0,0.44771525 0.44771525,0 1,0 L19,0 Z M8,6 C8,5.44771525 7.55228475,5 7,5 C6.48716416,5 6.06449284,5.38604019 6.00672773,5.88337887 L6,6 L6,14 C6,14.5522847 6.44771525,15 7,15 C7.51283584,15 7.93550716,14.6139598 7.99327227,14.1166211 L8,14 L8,11 L12,11 L12,14 C12,14.5522847 12.4477153,15 13,15 C13.5128358,15 13.9355072,14.6139598 13.9932723,14.1166211 L14,14 L14,6 C14,5.44771525 13.5522847,5 13,5 C12.4871642,5 12.0644928,5.38604019 12.0067277,5.88337887 L12,6 L12,9 L8,9 L8,6 Z" id="Shape" fill="#000000" fill-rule="nonzero"></path>
    </g>
</svg>

<svg xmlns="http://www.w3.org/2000/svg" viewBox="0 0 20 20">
  <path d="M19 0a1 1 0 0 1 1 1v18a1 1 0 0 1-1 1H1a1 1 0 0 1-1-1V1a1 1 0 0 1 1-1zM8 6a1 1 0 0 0-1.993-.117L6 6v8a1 1 0 0 0 1.993.117L8 14v-3h4v3a1 1 0 0 0 1.993.117L14 14V6a1 1 0 0 0-1.993-.117L12 6v3H8z"/>
</svg>
